X:1
T:Rector Potens, LM
T:Rector Potens, LM
T:Frank Sewall, 1910
T:Public Domain Courtesy of the Cyber Hymnal™
C:Frank Sewall, 1910
Z:Public Domain
Z:Courtesy of the Cyber Hymnal™
%%score ( 1 2 ) ( 3 4 )
L:1/8
Q:1/4=113
M:4/4
K:Eb
V:1 treble 
V:2 treble 
V:3 bass 
V:4 bass 
V:1
 EF | [EG]2 [FB]2 [Ee]2 [EA]2 | [EF]2 [DF]2 E2 [EG][FA] | [GB]2 [=Ec]2 [FA]2 [DB]2 | %4
 [EG]2 [CF][CE] !fermata![DF]2 EF | [EG]2 [FB]2 [Ee]2 de | [Fc]2 [Ec]2 !fermata![DB]2 [Ec]2 | %7
 [EB]2 [DA]2 [EG]2 AG | [EF]2 [DF]2 !fermata!E2 |] %9
V:2
 x2 | x8 | x4 E2 x2 | x8 | x8 | x6 G2 | x8 | x6 E2 | x4 E2 |] %9
V:3
 G,B, | [E,E]2 [D,B,]2 [C,G,]2 [B,,B,][A,,C] | [B,,B,]2 [B,,A,]2 [E,G,]2 [E,B,]2 | %3
 [E,G,]2 [C,G,]2 F,2 [B,,B,]2 | [E,B,]2 [F,=A,]2 !fermata![B,,B,]2 G,B, | %5
 [E,E]2 [D,B,]2 [C,G,]2 B,2 | [F,B,]2 [F,=A,]2 !fermata![B,,B,]2 [=A,,E,]2 | %7
 [E,G,]2 [B,,F,]2 [C,E,]2 z B, | [B,,B,]2 [B,,A,]2 !fermata![E,G,]2 |] %9
V:4
 E,2 | x8 | x8 | x4 F,2 x2 | x6 E,2 | x6 G,E, | x8 | x6 [A,,C]2 | x6 |] %9

